X: 1
T: Brigg Fair
M: 6/8
L: 1/8
R: jig
K: Emin
B2^c|d>BB ~BAG|A3 A>B^c|B2E E2F|G3 ~FED|
E2E G2A|B>AB dFF|G2G A2~G|E3|]
